symbolic/64x64/apps/eBook-speaker.svg

<svg xmlns="http://www.w3.org/2000/svg" width="64" height="64" version="1"><rect style="opacity:.2" width="44" height="56" x="10" y="5" rx="3" ry="3"/><rect style="fill:#e4e4e4" width="44" height="56" x="10" y="4" rx="3" ry="3"/><path style="fill:#4c4c4c" d="M18 46h28v2H18zm0-6h28v2H18zm0-6h28v2H18zm0-6h28v2H18zm0-6h28v2H18zm0-6h28v2H18z"/><path style="fill:#fff;opacity:.5" d="M18 34h14v2H18zm0-6h28v2H18zm0-6h28v2H18zm0-6h28v2H18z"/><path style="opacity:.2;fill:#fff" d="M13 4c-1.662 0-3 1.338-3 3v1c0-1.662 1.338-3 3-3h38c1.662 0 3 1.338 3 3V7c0-1.662-1.338-3-3-3H13z"/><path style="opacity:.2" d="M5 3C3.338 3 2 4.338 2 6v18c0 1.662 1.338 3 3 3h20l7 7V6c0-1.662-1.338-3-3-3z"/><path style="fill:#ab47bc" d="M5 2C3.338 2 2 3.338 2 5v18c0 1.662 1.338 3 3 3h20l7 7V5c0-1.662-1.338-3-3-3z"/><path style="fill:#fff" d="M9 11v6h3l4 4V7l-4 4z"/><rect style="fill:#fff" width="2" height="6" x="18" y="11" rx="1" ry="1"/><rect style="fill:#fff" width="2" height="10" x="22" y="9" rx="1" ry="1"/><path style="opacity:.1;fill:#fff" d="M5 2C3.338 2 2 3.338 2 5v1c0-1.662 1.338-3 3-3h24c1.662 0 3 1.338 3 3V5c0-1.662-1.338-3-3-3H5z"/></svg>

<svg xmlns="http://www.w3.org/2000/svg" width="64" height="64" version="1">
 <rect style="opacity:0.2" width="44" height="56" x="10" y="5" rx="3" ry="3"/>
 <rect style="fill:#e4e4e4" width="44" height="56" x="10" y="4" rx="3" ry="3"/>
 <path style="fill:#4c4c4c" d="M 18,46 H 46 V 48 H 18 Z M 18,40 H 46 V 42 H 18 Z M 18,34 H 46 V 36 H 18 Z M 18,28 H 46 V 30 H 18 Z M 18,22 H 46 V 24 H 18 Z M 18,16 H 46 V 18 H 18 Z"/>
 <path style="fill:#ffffff;opacity:0.5" d="M 18,34 H 32 V 36 H 18 Z M 18,28 H 46 V 30 H 18 Z M 18,22 H 46 V 24 H 18 Z M 18,16 H 46 V 18 H 18 Z"/>
 <path style="opacity:0.2;fill:#ffffff" d="M 13 4 C 11.338 4 10 5.338 10 7 L 10 8 C 10 6.338 11.338 5 13 5 L 51 5 C 52.662 5 54 6.338 54 8 L 54 7 C 54 5.338 52.662 4 51 4 L 13 4 z"/>
 <path style="opacity:0.2" d="M 5,3 C 3.338,3 2,4.338 2,6 V 24 C 2,25.662 3.338,27 5,27 H 25 L 32,34 V 6 C 32,4.338 30.662,3 29,3 Z"/>
 <path style="fill:#ab47bc" d="M 5,2 C 3.338,2 2,3.338 2,5 V 23 C 2,24.662 3.338,26 5,26 H 25 L 32,33 V 5 C 32,3.338 30.662,2 29,2 Z"/>
 <path style="fill:#ffffff" d="M 9,11 V 17 H 12 L 16,21 V 7 L 12,11 Z"/>
 <rect style="fill:#ffffff" width="2" height="6" x="18" y="11" rx="1" ry="1"/>
 <rect style="fill:#ffffff" width="2" height="10" x="22" y="9" rx="1" ry="1"/>
 <path style="opacity:0.1;fill:#ffffff" d="M 5 2 C 3.338 2 2 3.338 2 5 L 2 6 C 2 4.338 3.338 3 5 3 L 29 3 C 30.662 3 32 4.338 32 6 L 32 5 C 32 3.338 30.662 2 29 2 L 5 2 z"/>
</svg>
